X:1
T:Who Will Care for Mother Now?
M:2/4
L:1/8
K:A
 E3 A| cA FA| E4| A3 z| G3 A| BE dc| B4-| B2 z2| E3 A| cA FA| E4| A3 z|\
 G3 A| B^A B=c| ^c4-| c2 z2| B3 c| dc dB| c4| e4| A3 F| EC FA| B4-|\
 B2 z2| c3 =c| ^cA FA| E4| A3 z| G3 A| BE c3/2 B/2| A4-| A4| e3 c|\
 BA FA| E4| A3 z| G3 A| BE dc| B4-| B2 z2| e3 c| dc BA| F4| d4| E3 A|\
 cB AG| A4-| A2 z2|

